X:30
T:Sister Dolena Beaton
C:Howie MacDonald
R:reel
S:Tune of the Month, Dec. 2001, Sivler Apple News 8
D:Ashely MacIsaac, Fiddle Music 101
Z:Paul Stewart Cranford (P.S.C.), <http://www.cranfordpub.com>
Q:333
L:1/8
M:C|
K:F
z|A,CFA cfaf|efcf ABcA|G_E E/E/E DEB,E|G,_EB,E GEDE|  
F2 A,C FAcf|afef cfAc|BABd g^fga|bgeg f/f/f f:|  
|:g|af f/f/f efcB|AFAc fcAc|dB B/B/B gfdf|eceg bgeg|  
af f/f/f efcB|AFAc fcAc|BABd g^fga|bgeg f/f/f f:|
